!!!OTL: 116a. Malers Toechterlein.
!!!ARE: Europa, Mitteleuropa, Deutschland
!!!SCT: E0116
!!!TXL: @@DE
!!!YEM: Copyright 1995, estate of Helmut Schaffrath.
**kern	**text
*ICvox	*
*M6/4	*
*k[f#]	*
*G:	*
!LO:TX:a:t=Nach den Reutterliedlin 1535. Nr. 12.	!
{4g	Ein
=1	=1
2g	Meid-
4a	-lin
2b	an
4cc	dem
=2	=2
2b	Bo-
4a	-den
2g}	lag,
{4g	und
=3	=3
2dd	es
4a	ſchrei
2dd	ü-
4cc#	-ber-
=4	=4
[2.dd	-laut:
4dd]	.
4r}	.
{4dd	"Hätt
=5	=5
2cc	ich
4a	ein
2b	jun-
4cc	-gen
=6	=6
2.dd	Kna-
2cc}	-ben,
{8bL	der
8aJ	.
=7	=7
2g	mir
4g	die
(4.a	Lau-
8b/)	.
4cc	-ten
=8	=8
2.dd}	ſchlüg,
{4dd	und
4cc	ein
8bL	löeins
8aJ	.
=9	=9
4g	Geig-
8a/L	.
8b	.
8cc	.
8ddJ	.
4ee	.
(4.dd	-lin
8b)	.
=10	=10
4cc	mit
2a	ihm
2g;}	trüg!"
==	==
!!!AGN: erzaehlendes Volks - Lied, Schalk -, Schelmen - Lied, betrogene Liebe, Ballade ?
!!!ONB: ESAC (Essen Associative Code) Database: ERK1
!!!AMT: compound duple
!!!AIN: vox
!!!EED: Helmut Schaffrath
!!!EEV: 1.0
!!!GTL: Schalks- und Schlemenlieder (Liebesabenteuer und betrogene Liebe)
!!!URL-scan: https://rosdok.uni-rostock.de/mcrviewer/recordIdentifier/rosdok_ppn745146120/iview2/phys_0480.iview2?x=-422.27491384562836&y=1317.448340981733&scale=0.554360769283424&rotation=0&layout=singlePageLayout
!!!ENC: Anna Maria Matuszewska
!!!EEV: 2024/02/12
*-	*-
